icons/outline/confetti-off.svg

<!--
tags: [party, celebrate, streamers, paper, parade, wedding, celebration]
unicode: "f3d9"
version: "1.94"
-->
<svg
  xmlns="http://www.w3.org/2000/svg"
  width="24"
  height="24"
  viewBox="0 0 24 24"
  fill="none"
  stroke="currentColor"
  stroke-width="2"
  stroke-linecap="round"
  stroke-linejoin="round"
>
  <path d="M4 5h1m0 0v1m6.5 -2l-.5 2m7 -1h2m-1 -1v2m-4 3l-1 1m4 3l2 -.5m-2 6.5h1m0 0v1m-5 -3.482l-6.518 -6.518l-4.39 9.58a1 1 0 0 0 1.329 1.329l9.579 -4.39v0zm-11 -13.518l18 18" />
</svg>

<!--
tags: [party, celebrate, streamers, paper, parade, wedding, celebration]
unicode: "f3d9"
version: "1.94"
-->
<svg
  xmlns="http://www.w3.org/2000/svg"
  width="24"
  height="24"
  viewBox="0 0 24 24"
  fill="none"
  stroke="currentColor"
  stroke-width="2"
  stroke-linecap="round"
  stroke-linejoin="round"
>
    <path d="M4 5h1M5 5v1M11.5 4l-.5 2M18 5h2M19 4v2M15 9l-1 1M18 13l2 -.5M18 19h1M19 19v1M14 16.518l-6.518 -6.518l-4.39 9.58a1 1 0 0 0 1.329 1.329l9.579 -4.39v0zM3 3l18 18" />
</svg>
